src/icons/film-marker.svg

<?xml version="1.0" encoding="UTF-8"?>
<svg width="512px" height="512px" viewBox="0 0 512 512" version="1.1" xmlns="http://www.w3.org/2000/svg" xmlns:xlink="http://www.w3.org/1999/xlink">
    <!-- Generator: Sketch 62 (91390) - https://sketch.com -->
    <title>film-marker</title>
    <desc>Created with Sketch.</desc>
    <g id="film-marker" stroke="none" stroke-width="1" fill="none" fill-rule="evenodd">
        <path d="M404,212.654095 L139.4,212.654095 L401.9,160.354095 C408.4,159.154095 412.7,152.854095 411.4,146.454095 L404.6,111.554095 C403.4,105.054095 397.1,100.954095 390.5,102.154095 L105.8,158.654095 C99.3,159.854095 95,166.154095 96.3,172.454095 L103.1,207.354095 C103.6,209.554095 104.7,211.354095 106.1,212.854095 C100.4,213.754095 96,218.354095 96,224.354095 L96,385.254095 C96,391.754095 101.4,397.054095 108,397.054095 L404,397.054095 C410.6,397.054095 416,391.754095 416,385.254095 L416,224.454095 C416,217.954095 410.6,212.654095 404,212.654095 Z M293.7,362.154095 L254.7,334.254095 L215.7,362.154095 L230.7,317.254095 L191.6,289.554095 L239.8,289.554095 L254.6,244.654095 L269.4,289.554095 L317.6,289.554095 L278.5,317.254095 L293.7,362.154095 Z" id="Shape" fill="#000000" fill-rule="nonzero"></path>
    </g>
</svg>

<svg xmlns="http://www.w3.org/2000/svg" width="512" height="512" viewBox="0 0 512 512">
    <path d="M404 212.654H139.4l262.5-52.3c6.5-1.2 10.8-7.5 9.5-13.9l-6.8-34.9c-1.2-6.5-7.5-10.6-14.1-9.4l-284.7 56.5c-6.5 1.2-10.8 7.5-9.5 13.8l6.8 34.9c.5 2.2 1.6 4 3 5.5-5.7.9-10.1 5.5-10.1 11.5v160.9c0 6.5 5.4 11.8 12 11.8h296c6.6 0 12-5.3 12-11.8v-160.8c0-6.5-5.4-11.8-12-11.8zm-110.3 149.5l-39-27.9-39 27.9 15-44.9-39.1-27.7h48.2l14.8-44.9 14.8 44.9h48.2l-39.1 27.7 15.2 44.9z"/>
</svg>
